images/bravelion-logo.svg

<svg viewBox="0 0 84 98" xmlns="http://www.w3.org/2000/svg"><path d="m80.8813452 24.5162887 2.5330909 7.2650195c.1319726.3785033.1480014.7879311.0460257 1.1756403-.0180282.0685428-.0180282.0685428-.103701.3943135-.1172401.4458343-.1172401.4458343-.2931051 1.1146946-.3156586 1.2005778-.6673942 2.5386809-1.0461869 3.9801068-1.0822597 4.118339-2.164517 8.2395611-3.1746076 12.0900224-2.4934602 9.5051926-4.128356 15.7634431-4.5218813 17.3229971-2.1425423 8.4896762-3.8423028 11.4368293-9.3368978 15.3181504-4.8137593 3.4003863-14.8585804 10.2235711-16.7898637 11.4352291-.1845655.1157936-.3887145.2507334-.6590765.4345481-.1051229.0714714-.6153353.4212312-.7616825.5205859-.9388507.6373833-1.608661 1.045845-2.3305041 1.3828518-.9153917.4273689-1.7912807.6654479-2.6795745.6654479s-1.7641828-.238079-2.6795745-.6654479c-.721843-.3370068-1.3916533-.7454685-2.3305041-1.3828518-.1463471-.0993547-.6565596-.4491145-.7616824-.5205859-.270362-.1838147-.4745111-.3187545-.6590765-.4345481-1.9312834-1.211658-11.9761045-8.0348428-16.7898638-11.4352291-5.494595-3.8813211-7.1943554-6.8284742-9.33689131-15.3181248-.3936024-1.5595362-2.02851425-7.817767-4.50366317-17.2532488-1.02830052-3.919917-2.11056308-8.0412238-3.19282805-12.1596632-.37879462-1.441461-.7305319-2.7795987-1.04619203-3.9802091-.1758659-.6688786-.1758659-.6688786-.2931066-1.1147254-.08567319-.3257802-.08567319-.3257802-.10370153-.3943251-.1019724-.3877059-.08594247-.7971292.04602875-1.1756287l2.53309091-7.2650195-1.90116819-4.6843104c-.29424702-.7249987-.14188632-1.5553138.3904564-2.1278574.234545-.2511742.35675126-.3815323.49538477-.5289619.39531333-.4203954.84352365-.893872 1.33612823-1.4103334 1.4071841-1.4753339 2.88939934-3.0008727 4.37906056-4.4962182 1.42661829-1.4320621 3.34542556-2.20317455 5.58868586-2.46702419 1.7557112-.20650469 3.5847443-.09252525 5.3593542.21925865.0980836.01723245.1929513.03451547.2844578.05174341l7.3678113-8.39076816c.3805741-.43341342.9287052-.6817772 1.5046612-.6817772h28.6262645c.5759559 0 1.1240871.24836378 1.5046611.6817772l7.3678114 8.39076816c.0915065-.01722794.1863742-.03451096.2844578-.05174341 1.7746098-.3117839 3.603643-.42576334 5.3593542-.21925865 2.2432602.26384964 4.1620675 1.03496209 5.5886858 2.46702419 1.4896612 1.4953455 2.9718765 3.0208843 4.3790606 4.4962182.4926045.5164614.9408149.989938 1.3361282 1.4103334.1386335.1474296.2608398.2777877.3655544.3898108.6621731.7116947.8145338 1.5420098.5202868 2.2670085zm-4.0347273.6093173c-.1611168-.4620902-.1484787-.9672476.0355422-1.4206588l1.7014929-4.1923281c-.2850628-.3017034-.5928677-.6260133-.9207764-.9698026-1.3883495-1.4555871-2.8507631-2.9607454-4.3181552-4.4337369-.7066496-.7093461-1.7988903-1.1482856-3.2190822-1.3153269-1.3160118-.1547878-2.776883-.063751-4.2001447.186304-.3254515.0571791-.6209256.1181065-.8791946.1783352-.1471085.0343059-.2434926.0591018-.2821002.069867-.7406396.2065183-1.5338465-.0297882-2.0418141-.6082827l-7.551875-8.60038742h-26.8142595l-7.551875 8.60038742c-.5079676.5784945-1.3011745.814801-2.0418142.6082827-.0386076-.0107652-.1349916-.0355611-.2821001-.069867-.2582691-.0602287-.5537431-.1211561-.8791946-.1783352-1.4232617-.250055-2.884133-.3410918-4.2001448-.186304-1.4201919.1670413-2.5124326.6059808-3.2190821 1.3153269-1.46739219 1.4729915-2.92980572 2.9781498-4.31815526 4.4337369-.32790865.3437893-.63571357.6680992-.92077635.9698026l1.70149285 4.1923281c.1840209.4534112.19665898.9585686.0355422 1.4206588l-2.58063161 7.4013684c.07003098.2663185.0955781.363483.24045377.9144951.31570055 1.2007641.66747946 2.5390602 1.04631767 3.980687 1.08240025 4.1189543 2.1648029 8.2407946 3.17506147 12.0919345 2.49977016 9.5293395 4.13283896 15.7805156 4.53123586 17.3590483 1.9275832 7.6379158 3.1547053 9.7655783 7.7593434 13.0182437 4.7590702 3.3617546 14.7508084 10.1488814 16.6074449 11.3137072.2336241.1465722.4749827.306107.7825032.5151853.1140221.0775218.6227416.4262582.7594442.5190652.7749765.5261295 1.2945258.8429595 1.775003 1.0672799.4278449.1997479.7588752.2897266.9870612.2897266s.5592163-.0899787.9870613-.2897266c.4804771-.2243204 1.0000265-.5411504 1.775003-1.0672799.1367025-.092807.645422-.4415434.7594441-.5190652.3075206-.2090783.5488791-.3686131.7825032-.5151853 1.8566366-1.1648258 11.8483748-7.9519526 16.6074449-11.3137072 4.6046381-3.2526654 5.8317602-5.3803279 7.7593257-13.0181733.3983211-1.5785597 2.0313636-7.8297161 4.5129674-17.289712 1.0285628-3.9208778 2.110961-8.0426363 3.1933567-12.1614929.3788366-1.4415927.730614-2.779855 1.0463132-3.9805874.1448712-.5509825.1704208-.6481542.2404471-.914449zm-14.9056965-7.9468409s10.4835742 12.7214445 10.4835742 15.4403415-1.3187961 3.4364862-2.6447487 4.8499136c-1.3259527 1.4134273-7.1170063 7.5863711-7.8606928 8.3789919-.7436865.7928204-2.2918903 1.9947225-1.3812172 4.1580665.910673 2.163344 2.2541195 4.9161649.7601863 7.7082974-1.4941319 2.7921326-4.0535983 4.6557494-5.6936447 4.347641-1.6400464-.3083079-5.4916705-2.3287726-6.9080742-3.251701-1.4164038-.9229283-5.9055586-4.6393861-5.9055586-6.0613942 0-1.4218085 4.6404367-3.9748777 5.4976343-4.5549755.8575952-.5798984 4.7678634-2.8250587 4.8479772-3.7062807.0799149-.8814215.0494995-1.1398414-1.1044967-3.3173536-1.1539963-2.1777118-3.2321836-5.083589-2.8862829-7.0170491.3459007-1.9332604 3.6975591-2.9386038 6.0894426-3.8453684 2.3914858-.906565 6.9965373-2.6189214 7.5716469-2.8851238.5755072-.266402.4268097-.5200327-1.316013-.6858605-1.742425-.1658278-6.6876122-.8247487-8.9170813-.2009489-2.2294692.6237997-6.0383527 1.5728694-6.3468802 2.0761397-.3085276.5032703-.5806759.5202323-.263799 2.2563353.316678 1.736103 1.9479775 10.0666038 2.1062172 11.5462824.1584384 1.4796786.4681587 2.4578829-1.1211954 2.8226641-1.5895529.3647812-4.2651146.9981594-5.1845346.9981594-.9194199 0-3.5951805-.6333782-5.1845345-.9981594-1.5895529-.3647812-1.2798326-1.3429855-1.1213942-2.8226641s1.7895391-9.8101794 2.106416-11.5462824c.316678-1.736103.0445297-1.753065-.263799-2.2563353-.3085275-.5032703-4.1176099-1.45234-6.347079-2.0761397-2.2294691-.6237998-7.1744575.0351211-8.9170814.2009489-1.7426238.1658278-1.8913214.4194585-1.316013.6858605.5753084.2662024 5.1803599 1.9785588 7.5718458 2.8851238 2.3916846.9067646 5.7435419 1.912108 6.0894426 3.8453684.3459007 1.9334601-1.7324854 4.8393373-2.8862829 7.0170491-1.1539963 2.1775122-1.1846105 2.4359321-1.1044967 3.3173536.079915.881222 3.990382 3.1263823 4.8477784 3.7062807.8573963.5800978 5.4976343 3.133167 5.4976343 4.5549755 0 1.4220081-4.4889561 5.1384659-5.9053598 6.0613942-1.4164037.9229284-5.2680279 2.9433931-6.9080743 3.251701-1.6400464.3081084-4.1995127-1.5555084-5.6936447-4.347641-1.4939332-2.7921325-.1504867-5.5449534.7599876-7.7082974.910673-2.163344-.637332-3.3652461-1.3812173-4.1580665-.7434877-.7926208-6.53474-6.9655646-7.8606927-8.3789919-1.3259527-1.4134274-2.64455-2.1310166-2.64455-4.8499136s10.4835742-15.4403415 10.4835742-15.4403415 8.8463109 1.6961926 10.0390719 1.6961926c1.1927611 0 3.7770766-.9977604 6.1625987-1.7959687 2.385522-.7982082 3.97587-.8039953 3.97587-.8039953s1.5903481.0057871 3.9758701.8039953c2.385522.7982083 4.9698376 1.7959687 6.1625986 1.7959687s10.0390719-1.6961926 10.0390719-1.6961926zm-7.8591421 48.6620498c.648862.4078844.2530641 1.1767586-.337949 1.596217-.5912118.4194585-8.535199 6.5943978-9.3061202 7.2768659-.77112.6826676-1.9040442 1.8099372-2.674369 1.8099372-.7703249 0-1.9034478-1.1272696-2.674369-1.8099372-.77112-.6824681-8.7149084-6.8574074-9.3061203-7.2768659-.5912119-.4194584-.986811-1.1883326-.337949-1.596217.6490608-.4076849 2.6793389-1.4367749 5.4809357-2.8921082 2.8011993-1.4551337 6.2926096-2.6923565 6.8375026-2.6923565s4.0361045 1.2372228 6.8377013 2.6923565c2.8013981 1.4553333 4.8316761 2.4844233 5.4807369 2.8921082z" fill="#fff" transform="translate(.148 .223)"/></svg>

<svg xmlns="http://www.w3.org/2000/svg" xmlns:xlink="http://www.w3.org/1999/xlink" viewBox="0 0 84 98">
  <defs>
    <path id="logo_alternate-a" d="M80.8813452,24.5162887 L83.4144361,31.7813082 C83.5464087,32.1598115 83.5624375,32.5692393 83.4604618,32.9569485 C83.4424336,33.0254913 83.4424336,33.0254913 83.3567608,33.351262 C83.2395207,33.7970963 83.2395207,33.7970963 83.0636557,34.4659566 C82.7479971,35.6665344 82.3962615,37.0046375 82.0174688,38.4460634 C80.9352091,42.5644024 79.8529518,46.6856245 78.8428612,50.5360858 C76.349401,60.0412784 74.7145052,66.2995289 74.3209799,67.8590829 C72.1784376,76.3487591 70.4786771,79.2959122 64.9840821,83.1772333 C60.1703228,86.5776196 50.1255017,93.4008044 48.1942184,94.6124624 C48.0096529,94.728256 47.8055039,94.8631958 47.5351419,95.0470105 C47.430019,95.1184819 46.9198066,95.4682417 46.7734594,95.5675964 C45.8346087,96.2049797 45.1647984,96.6134414 44.4429553,96.9504482 C43.5275636,97.3778171 42.6516746,97.6158961 41.7633808,97.6158961 C40.875087,97.6158961 39.999198,97.3778171 39.0838063,96.9504482 C38.3619633,96.6134414 37.692153,96.2049797 36.7533022,95.5675964 C36.6069551,95.4682417 36.0967426,95.1184819 35.9916198,95.0470105 C35.7212578,94.8631958 35.5171087,94.728256 35.3325433,94.6124624 C33.4012599,93.4008044 23.3564388,86.5776196 18.5426795,83.1772333 C13.0480845,79.2959122 11.3483241,76.3487591 9.20578819,67.8591085 C8.81218579,66.2995723 7.17727394,60.0413415 4.70212502,50.6058597 C3.6738245,46.6859427 2.59156194,42.5646359 1.50929697,38.4461965 C1.13050235,37.0047355 0.778765072,35.6665978 0.463104935,34.4659874 C0.287239038,33.7971088 0.287239038,33.7971088 0.169998338,33.351262 C0.084325154,33.0254818 0.084325154,33.0254818 0.0662968146,32.9569369 C-0.0356755899,32.569231 -0.0196456617,32.1598077 0.112325564,31.7813082 L2.64541647,24.5162887 L0.744248282,19.8319783 C0.450001264,19.1069796 0.60236196,18.2766645 1.13470468,17.7041209 C1.36924968,17.4529467 1.49145594,17.3225886 1.63008945,17.175159 C2.02540278,16.7547636 2.4736131,16.281287 2.96621768,15.7648256 C4.37340178,14.2894917 5.85561702,12.7639529 7.34527824,11.2686074 C8.77189653,9.8365453 10.6907038,9.06543285 12.9339641,8.80158321 C14.6896753,8.59507852 16.5187084,8.70905796 18.2933183,9.02084186 C18.3914019,9.03807431 18.4862696,9.05535733 18.5777761,9.07258527 L25.9455874,0.681817108 C26.3261615,0.248403685 26.8742926,3.99104143e-05 27.4502486,3.99104143e-05 L56.0765131,3.99104143e-05 C56.652469,3.99104143e-05 57.2006002,0.248403685 57.5811742,0.681817108 L64.9489856,9.07258527 C65.0404921,9.05535733 65.1353598,9.03807431 65.2334434,9.02084186 C67.0080532,8.70905796 68.8370864,8.59507852 70.5927976,8.80158321 C72.8360578,9.06543285 74.7548651,9.8365453 76.1814834,11.2686074 C77.6711446,12.7639529 79.1533599,14.2894917 80.560544,15.7648256 C81.0531485,16.281287 81.5013589,16.7547636 81.8966722,17.175159 C82.0353057,17.3225886 82.157512,17.4529467 82.2622266,17.5649698 C82.9243997,18.2766645 83.0767604,19.1069796 82.7825134,19.8319783 L80.8813452,24.5162887 Z M76.8466179,25.125606 C76.6855011,24.6635158 76.6981392,24.1583584 76.8821601,23.7049472 L78.583653,19.5126191 C78.2985902,19.2109157 77.9907853,18.8866058 77.6628766,18.5428165 C76.2745271,17.0872294 74.8121135,15.5820711 73.3447214,14.1090796 C72.6380718,13.3997335 71.5458311,12.960794 70.1256392,12.7937527 C68.8096274,12.6389649 67.3487562,12.7300017 65.9254945,12.9800567 C65.600043,13.0372358 65.3045689,13.0981632 65.0462999,13.1583919 C64.8991914,13.1926978 64.8028073,13.2174937 64.7641997,13.2282589 C64.0235601,13.4347772 63.2303532,13.1984707 62.7223856,12.6199762 L55.1705106,4.01958878 L28.3562511,4.01958878 L20.8043761,12.6199762 C20.2964085,13.1984707 19.5032016,13.4347772 18.7625619,13.2282589 C18.7239543,13.2174937 18.6275703,13.1926978 18.4804618,13.1583919 C18.2221927,13.0981632 17.9267187,13.0372358 17.6012672,12.9800567 C16.1780055,12.7300017 14.7171342,12.6389649 13.4011224,12.7937527 C11.9809305,12.960794 10.8886898,13.3997335 10.1820403,14.1090796 C8.71464811,15.5820711 7.25223458,17.0872294 5.86388504,18.5428165 C5.53597639,18.8866058 5.22817147,19.2109157 4.94310869,19.5126191 L6.64460154,23.7049472 C6.82862244,24.1583584 6.84126052,24.6635158 6.68014374,25.125606 L4.09951213,32.5269744 C4.16954311,32.7932929 4.19509023,32.8904574 4.3399659,33.4414695 C4.65566645,34.6422336 5.00744536,35.9805297 5.38628357,37.4221565 C6.46868382,41.5411108 7.55108647,45.6629511 8.56134504,49.514091 C11.0611152,59.0434305 12.694184,65.2946066 13.0925809,66.8731393 C15.0201641,74.5110551 16.2472862,76.6387176 20.8519243,79.891383 C25.6109945,83.2531376 35.6027327,90.0402644 37.4593692,91.2050902 C37.6929933,91.3516624 37.9343519,91.5111972 38.2418724,91.7202755 C38.3558945,91.7977973 38.864614,92.1465337 39.0013166,92.2393407 C39.7762931,92.7654702 40.2958424,93.0823002 40.7763196,93.3066206 C41.2041645,93.5063685 41.5351948,93.5963472 41.7633808,93.5963472 C41.9915668,93.5963472 42.3225971,93.5063685 42.7504421,93.3066206 C43.2309192,93.0823002 43.7504686,92.7654702 44.5254451,92.2393407 C44.6621476,92.1465337 45.1708671,91.7977973 45.2848892,91.7202755 C45.5924098,91.5111972 45.8337683,91.3516624 46.0673924,91.2050902 C47.924029,90.0402644 57.9157672,83.2531376 62.6748373,79.891383 C67.2794754,76.6387176 68.5065975,74.5110551 70.434163,66.8732097 C70.8324841,65.29465 72.4655266,59.0434936 74.9471304,49.5834977 C75.9756932,45.6626199 77.0580914,41.5408614 78.1404871,37.4220048 C78.5193237,35.9804121 78.8711011,34.6421498 79.1868003,33.4414174 C79.3316715,32.8904349 79.3572211,32.7932632 79.4272474,32.5269684 L76.8466179,25.125606 Z M61.9409214,17.1787651 C61.9409214,17.1787651 72.4244956,29.9002096 72.4244956,32.6191066 C72.4244956,35.3380036 71.1056995,36.0555928 69.7797469,37.4690202 C68.4537942,38.8824475 62.6627406,45.0553913 61.9190541,45.8480121 C61.1753676,46.6408325 59.6271638,47.8427346 60.5378369,50.0060786 C61.4485099,52.1694226 62.7919564,54.9222435 61.2980232,57.714376 C59.8038913,60.5065086 57.2444249,62.3701254 55.6043785,62.062017 C53.9643321,61.7537091 50.112708,59.7332444 48.6963043,58.810316 C47.2799005,57.8873877 42.7907457,54.1709299 42.7907457,52.7489218 C42.7907457,51.3271133 47.4311824,48.7740441 48.28838,48.1939463 C49.1459752,47.6140479 53.0562434,45.3688876 53.1363572,44.4876656 C53.2162721,43.6062441 53.1858567,43.3478242 52.0318605,41.170312 C50.8778642,38.9926002 48.7996769,36.086723 49.1455776,34.1532629 C49.4914783,32.2200025 52.8431367,31.2146591 55.2350202,30.3078945 C57.626506,29.4013295 62.2315575,27.6889731 62.8066671,27.4227707 C63.3821743,27.1563687 63.2334768,26.902738 61.4906541,26.7369102 C59.7482291,26.5710824 54.8030419,25.9121615 52.5735728,26.5359613 C50.3441036,27.159761 46.5352201,28.1088307 46.2266926,28.612101 C45.918165,29.1153713 45.6460167,29.1323333 45.9628936,30.8684363 C46.2795716,32.6045393 47.9108711,40.9350401 48.0691108,42.4147187 C48.2275492,43.8943973 48.5372695,44.8726016 46.9479154,45.2373828 C45.3583625,45.602164 42.6828008,46.2355422 41.7633808,46.2355422 C40.8439609,46.2355422 38.1682003,45.602164 36.5788463,45.2373828 C34.9892934,44.8726016 35.2990137,43.8943973 35.4574521,42.4147187 C35.6158905,40.9350401 37.2469912,32.6045393 37.5638681,30.8684363 C37.8805461,29.1323333 37.6083978,29.1153713 37.3000691,28.612101 C36.9915416,28.1088307 33.1824592,27.159761 30.9529901,26.5359613 C28.723521,25.9121615 23.7785326,26.5710824 22.0359087,26.7369102 C20.2932849,26.902738 20.1445873,27.1563687 20.7198957,27.4227707 C21.2952041,27.6889731 25.9002556,29.4013295 28.2917415,30.3078945 C30.6834261,31.2146591 34.0352834,32.2200025 34.3811841,34.1532629 C34.7270848,36.086723 32.6486987,38.9926002 31.4949012,41.170312 C30.3409049,43.3478242 30.3102907,43.6062441 30.3904045,44.4876656 C30.4703195,45.3688876 34.3807865,47.6140479 35.2381829,48.1939463 C36.0955792,48.7740441 40.7358172,51.3271133 40.7358172,52.7489218 C40.7358172,54.1709299 36.2468611,57.8873877 34.8304574,58.810316 C33.4140537,59.7332444 29.5624295,61.7537091 27.9223831,62.062017 C26.2823367,62.3701254 23.7228704,60.5065086 22.2287384,57.714376 C20.7348052,54.9222435 22.0782517,52.1694226 22.988726,50.0060786 C23.899399,47.8427346 22.351394,46.6408325 21.6075087,45.8480121 C20.864021,45.0553913 15.0727687,38.8824475 13.746816,37.4690202 C12.4208633,36.0555928 11.102266,35.3380036 11.102266,32.6191066 C11.102266,29.9002096 21.5858402,17.1787651 21.5858402,17.1787651 C21.5858402,17.1787651 30.4321511,18.8749577 31.6249121,18.8749577 C32.8176732,18.8749577 35.4019887,17.8771973 37.7875108,17.078989 C40.1730328,16.2807808 41.7633808,16.2749937 41.7633808,16.2749937 C41.7633808,16.2749937 43.3537289,16.2807808 45.7392509,17.078989 C48.1247729,17.8771973 50.7090885,18.8749577 51.9018495,18.8749577 C53.0946105,18.8749577 61.9409214,17.1787651 61.9409214,17.1787651 Z M54.0817793,65.8408149 C54.7306413,66.2486993 54.3348434,67.0175735 53.7438303,67.4370319 C53.1526185,67.8564904 45.2086313,74.0314297 44.4377101,74.7138978 C43.6665901,75.3965654 42.5336659,76.523835 41.7633411,76.523835 C40.9930162,76.523835 39.8598933,75.3965654 39.0889721,74.7138978 C38.3178521,74.0314297 30.3740637,67.8564904 29.7828518,67.4370319 C29.1916399,67.0175735 28.7960408,66.2486993 29.4449028,65.8408149 C30.0939636,65.43313 32.1242417,64.40404 34.9258385,62.9487067 C37.7270378,61.493573 41.2184481,60.2563502 41.7633411,60.2563502 C42.3082341,60.2563502 45.7994456,61.493573 48.6010424,62.9487067 C51.4024405,64.40404 53.4327185,65.43313 54.0817793,65.8408149 Z"/>
  </defs>
  <use fill="#FFF" transform="translate(.148 .223)" xlink:href="#logo_alternate-a"/>
</svg>
